app/img/login.svg

<svg width="14" height="14" viewBox="0 0 14 14" fill="none" xmlns="http://www.w3.org/2000/svg">
<path d="M5.25001 1.16675H10.5C11.1417 1.16675 11.6667 1.69175 11.6667 2.33341V11.6667C11.6667 12.3084 11.1417 12.8334 10.5 12.8334H5.25001C4.60834 12.8334 4.08334 12.3084 4.08334 11.6667V10.5001H5.25001V11.6667H10.5V2.33341H5.25001V3.50008H4.08334V2.33341C4.08334 1.69175 4.60834 1.16675 5.25001 1.16675Z" fill="#969696"/>
<path d="M5.88583 9.09409L6.70833 9.91658L9.625 6.99992L6.70833 4.08325L5.88583 4.90575L7.39083 6.41659H1.75V7.58325H7.39083L5.88583 9.09409Z" fill="#969696"/>
</svg>

<svg width="14" height="14" fill="none" xmlns="http://www.w3.org/2000/svg"><path d="M5.25 1.167h5.25a1.17 1.17 0 011.167 1.166v9.334a1.17 1.17 0 01-1.167 1.166H5.25a1.17 1.17 0 01-1.167-1.166V10.5H5.25v1.167h5.25V2.333H5.25V3.5H4.083V2.333A1.17 1.17 0 015.25 1.167z" fill="#969696"/><path d="M5.886 9.094l.822.823L9.625 7 6.708 4.083l-.822.823 1.505 1.51H1.75v1.167h5.64L5.887 9.094z" fill="#969696"/></svg>
